assets/icons/qvision/linear_scale.svg

<svg xmlns="http://www.w3.org/2000/svg" enable-background="new 0 0 24 24" height="24" viewBox="0 0 24 24" width="24"><g><rect fill="none" height="24" width="24"/></g><g><g><g><path d="M19.5,9.5c-1.03,0-1.9,0.62-2.29,1.5h-2.92C13.9,10.12,13.03,9.5,12,9.5s-1.9,0.62-2.29,1.5H6.79 C6.4,10.12,5.53,9.5,4.5,9.5C3.12,9.5,2,10.62,2,12s1.12,2.5,2.5,2.5c1.03,0,1.9-0.62,2.29-1.5h2.92c0.39,0.88,1.26,1.5,2.29,1.5 s1.9-0.62,2.29-1.5h2.92c0.39,0.88,1.26,1.5,2.29,1.5c1.38,0,2.5-1.12,2.5-2.5S20.88,9.5,19.5,9.5z"/></g></g></g></svg>

<svg width="24" height="24" viewBox="0 0 24 24" fill="none" xmlns="http://www.w3.org/2000/svg">
<g clip-path="url(#clip0_147_2689)">
<path d="M19.5 9.5C18.47 9.5 17.6 10.12 17.21 11H14.29C13.9 10.12 13.03 9.5 12 9.5C10.97 9.5 10.1 10.12 9.71 11H6.79C6.4 10.12 5.53 9.5 4.5 9.5C3.12 9.5 2 10.62 2 12C2 13.38 3.12 14.5 4.5 14.5C5.53 14.5 6.4 13.88 6.79 13H9.71C10.1 13.88 10.97 14.5 12 14.5C13.03 14.5 13.9 13.88 14.29 13H17.21C17.6 13.88 18.47 14.5 19.5 14.5C20.88 14.5 22 13.38 22 12C22 10.62 20.88 9.5 19.5 9.5Z" fill="#323232"/>
</g>
<defs>
<clipPath id="clip0_147_2689">
<rect width="24" height="24" fill="white"/>
</clipPath>
</defs>
</svg>
